X: 100315
T: JAMES WARES', OF WICK, STRATHSPEY
C: By Jas. McQueen, Forres
R: strathpsey
B: K\"ohler's Violin Repository, v.3, 1885 p.224 #2
F: http://www.archive.org/details/klersviolinrepos03rugg
Z: 2012 John Chambers <jc:trillian.mit.edu>
M: 4/4
L: 1/8
K: G
uD |\
D<G (G>D) (E>G) D<B, | (C>E) (D>B,) (C<A,) A,2 | D<G (G>D) (E>G) D>G | (F>G) (A>c) B<G G :| uc |
B<d (g>d) (e<g) d>c |(B<d) (g>b) (b<a) a2 | B<d (g>d) (e<g) d>B | (3cBA (3Adc (B<G) G2 |
B<d (g>d) (e<g) d>c |(B<d) (g>b) (b<a) a2 | (3bag (3gfe (3gfe (3dcB | (3cBA (3Adc (B<G) G |]

%%sep 2 1 500

